icons/svgs/chevron-right-outline.svg

<svg width="24" height="24" viewBox="0 0 24 24" fill="none" xmlns="http://www.w3.org/2000/svg">
<path d="M18.1641 11.3359C18.5156 11.7266 18.5156 12.3125 18.1641 12.6641L10.6641 20.1641C10.2734 20.5547 9.6875 20.5547 9.33594 20.1641C8.94531 19.8125 8.94531 19.2266 9.33594 18.875L16.1719 12.0391L9.33594 5.16406C8.94531 4.8125 8.94531 4.22656 9.33594 3.875C9.6875 3.48438 10.2734 3.48438 10.625 3.875L18.1641 11.3359Z" fill="black"/>
</svg>

<svg xmlns="http://www.w3.org/2000/svg" width="24" height="24" fill="currentColor" class="icon-chevron-right-outline" viewBox="0 0 24 24">
  <mask id="a" width="10" height="18" x="9" y="3" maskUnits="userSpaceOnUse" style="mask-type:alpha">
    <path d="M18.164 11.336c.352.39.352.976 0 1.328l-7.5 7.5c-.39.39-.976.39-1.328 0a.856.856 0 0 1 0-1.289l6.836-6.836-6.836-6.875a.855.855 0 0 1 0-1.289.855.855 0 0 1 1.289 0z"/>
  </mask>
  <g mask="url(#a)">
    <path d="M0 0h24v24H0z"/>
  </g>
</svg>
